public/home/logo3.svg

<svg width="216" height="64" viewBox="0 0 216 64" fill="none" xmlns="http://www.w3.org/2000/svg">
<g clip-path="url(#clip0_561_39)">
<path fill-rule="evenodd" clip-rule="evenodd" d="M39.3019 24.2078C41.7984 20.8498 45.7962 18.6742 50.3021 18.6742C54.8344 18.6742 58.8525 20.8754 61.346 24.2671C61.2399 24.3763 61.1432 24.4894 61.0558 24.6023C60.599 25.1938 60.2554 25.9557 59.98 26.7293C59.4256 28.2853 59.0027 30.3178 58.6111 32.2211L58.5764 32.3922C58.1857 34.292 57.8226 36.0588 57.3835 37.3704C57.1863 37.9596 56.9992 38.3761 56.8333 38.643C56.6602 38.374 56.4638 37.9524 56.256 37.3547C55.7864 36.0054 55.3915 34.1703 54.9728 32.2107L54.9592 32.1466C54.5569 30.2644 54.1301 28.2673 53.598 26.7386C53.3306 25.9707 53.0026 25.2165 52.5736 24.6305C52.1525 24.0554 51.4517 23.4064 50.4266 23.4064C49.408 23.4064 48.7039 24.0484 48.2768 24.617C47.8395 25.1992 47.4985 25.9503 47.2177 26.7186C46.6521 28.2657 46.1897 30.2894 45.7593 32.1953L45.7149 32.3922C45.2887 34.2802 44.8903 36.0452 44.4381 37.3593C44.2655 37.8612 44.1026 38.2429 43.9551 38.5157C43.811 38.2442 43.6522 37.865 43.4843 37.3674C43.0504 36.0813 42.6704 34.3656 42.2622 32.5229L42.1908 32.2004C41.7679 30.2934 41.3091 28.266 40.7354 26.7141C40.4504 25.9429 40.1018 25.188 39.6506 24.6031C39.5485 24.4707 39.4324 24.3363 39.3019 24.2078ZM37.791 26.7862C37.9099 27.021 38.0356 27.312 38.1657 27.6639C38.6622 29.0072 39.0829 30.8402 39.5161 32.7936L39.6004 33.1742C39.9948 34.9566 40.4051 36.8106 40.8884 38.2429C41.1454 39.0048 41.4558 39.751 41.855 40.3309C42.2325 40.8794 42.9097 41.5878 43.9511 41.5878C44.9895 41.5878 45.6683 40.8828 46.0484 40.3368C46.451 39.7582 46.7665 39.0129 47.0287 38.2506C47.5314 36.7898 47.9594 34.8923 48.369 33.0764L48.4317 32.7987C48.873 30.8442 49.2978 29.0075 49.7908 27.6593C50.0191 27.0347 50.2329 26.5995 50.419 26.3296C50.5954 26.5972 50.7969 27.0254 51.0106 27.6393C51.4803 28.9886 51.8749 30.8238 52.2937 32.7833L52.3074 32.8475C52.7096 34.7297 53.1364 36.7268 53.6685 38.2552C53.9358 39.0235 54.2639 39.7777 54.6929 40.3635C55.114 40.9387 55.8148 41.5878 56.8397 41.5878C57.8701 41.5878 58.5683 40.9328 58.9844 40.3525C59.407 39.7637 59.7247 39.0069 59.9813 38.24C60.4747 36.7668 60.8671 34.8554 61.2408 33.037L61.2947 32.7729C61.6972 30.8158 62.0837 28.9879 62.5609 27.6486C62.6644 27.3572 62.7662 27.1088 62.8634 26.9002C63.5947 28.5762 64.0002 30.427 64.0002 32.3724C64.0002 39.9376 57.8675 46.0707 50.3021 46.0707C42.7368 46.0707 36.6039 39.9376 36.6039 32.3724C36.6039 30.3828 37.0281 28.4922 37.791 26.7862ZM50.3021 15.9346C41.2237 15.9346 33.8643 23.2941 33.8643 32.3724C33.8643 41.4508 41.2237 48.8102 50.3021 48.8102C59.3807 48.8102 66.7397 41.4508 66.7397 32.3724C66.7397 23.2941 59.3807 15.9346 50.3021 15.9346ZM50.6152 26.1002C50.6152 26.1002 50.6121 26.1031 50.6056 26.1069C50.612 26.1018 50.6152 26.1002 50.6152 26.1002ZM50.2366 26.1021C50.2302 26.0982 50.2271 26.0952 50.2271 26.0952C50.2271 26.0952 50.2303 26.0968 50.2366 26.1021ZM56.6314 38.903C56.6314 38.903 56.6344 38.9 56.6403 38.8962C56.6344 38.9013 56.6314 38.903 56.6314 38.903ZM57.0297 38.892C57.0361 38.8958 57.0395 38.8988 57.0395 38.8988C57.0395 38.8988 57.0361 38.8971 57.0297 38.892ZM43.6704 38.9276C43.6704 38.9276 43.6743 38.9234 43.6822 38.9178C43.6744 38.9251 43.6704 38.9276 43.6704 38.9276ZM44.2252 38.9204C44.233 38.9259 44.2369 38.9301 44.2369 38.9301C44.2369 38.9301 44.2329 38.928 44.2252 38.9204Z" fill="white"/>
<path d="M75.8163 42.1034L71.8301 28.4683H75.3217L77.6858 38.2822L80.4346 28.4683H84.3381L87.0874 38.2822L89.479 28.4683H92.9702L88.9568 42.1034H85.3006L82.3863 31.9046L79.4725 42.1034H75.8163Z" fill="white"/>
<path d="M98.0934 42.4337C96.9205 42.4337 95.9584 42.2501 95.2071 41.8835C94.4558 41.4988 93.8967 40.9948 93.5302 40.3717C93.1637 39.7485 92.9805 39.0613 92.9805 38.3101C92.9805 37.0455 93.4751 36.0192 94.4648 35.2311C95.4544 34.4431 96.9391 34.049 98.9185 34.049H102.382V33.7191C102.382 32.7845 102.116 32.0972 101.585 31.6574C101.053 31.2175 100.393 30.9976 99.6057 30.9976C98.8909 30.9976 98.2677 31.1717 97.7362 31.5199C97.2047 31.8498 96.8746 32.3446 96.7465 33.0044H93.3101C93.4021 32.0148 93.7317 31.1534 94.2997 30.4203C94.8864 29.6873 95.6377 29.1283 96.5539 28.7435C97.4706 28.3403 98.4968 28.1387 99.6328 28.1387C101.576 28.1387 103.106 28.6243 104.224 29.5956C105.342 30.5669 105.901 31.9415 105.901 33.7191V42.1037H102.904L102.575 39.9046C102.171 40.6377 101.603 41.2421 100.87 41.719C100.155 42.1953 99.2298 42.4337 98.0934 42.4337ZM98.8909 39.6845C99.8988 39.6845 100.678 39.3544 101.227 38.6948C101.795 38.0352 102.153 37.2194 102.3 36.2482H99.3032C98.3683 36.2482 97.6997 36.4224 97.2963 36.7705C96.8933 37.1004 96.6914 37.513 96.6914 38.0076C96.6914 38.5391 96.8933 38.9515 97.2963 39.2446C97.6997 39.5377 98.2308 39.6845 98.8909 39.6845Z" fill="white"/>
<path d="M111.44 42.1034L106.438 28.4683H110.121L113.585 38.7773L117.049 28.4683H120.732L115.702 42.1034H111.44Z" fill="white"/>
<path d="M127.806 42.4337C126.432 42.4337 125.213 42.1402 124.15 41.5539C123.087 40.9673 122.253 40.1426 121.648 39.0796C121.043 38.0169 120.741 36.7889 120.741 35.396C120.741 33.9849 121.034 32.7295 121.621 31.6299C122.226 30.5303 123.05 29.6781 124.095 29.0733C125.158 28.4502 126.404 28.1387 127.833 28.1387C129.171 28.1387 130.354 28.4319 131.38 29.0183C132.406 29.6048 133.203 30.4112 133.771 31.4375C134.358 32.4454 134.651 33.5725 134.651 34.8188C134.651 35.0204 134.642 35.2311 134.624 35.451C134.624 35.671 134.614 35.9 134.596 36.1383H124.232C124.306 37.2012 124.672 38.0352 125.332 38.6401C126.01 39.2446 126.826 39.547 127.779 39.547C128.493 39.547 129.089 39.3914 129.566 39.0796C130.06 38.75 130.427 38.3283 130.665 37.815H134.239C133.982 38.6766 133.551 39.4647 132.947 40.1795C132.36 40.8756 131.627 41.4254 130.747 41.8288C129.886 42.2318 128.905 42.4337 127.806 42.4337ZM127.833 30.9976C126.972 30.9976 126.212 31.2451 125.552 31.7398C124.892 32.2164 124.47 32.9494 124.287 33.9391H131.077C131.022 33.041 130.693 32.3263 130.088 31.7948C129.483 31.2634 128.732 30.9976 127.833 30.9976Z" fill="white"/>
<path d="M136.511 42.104V22.311H140.029V42.104H136.511Z" fill="white"/>
<path d="M149.15 42.4337C147.775 42.4337 146.556 42.1402 145.493 41.5539C144.431 40.9673 143.597 40.1426 142.992 39.0796C142.387 38.0169 142.085 36.7889 142.085 35.396C142.085 33.9849 142.378 32.7295 142.964 31.6299C143.569 30.5303 144.394 29.6781 145.439 29.0733C146.502 28.4502 147.748 28.1387 149.177 28.1387C150.515 28.1387 151.697 28.4319 152.724 29.0183C153.75 29.6048 154.547 30.4112 155.115 31.4375C155.701 32.4454 155.995 33.5725 155.995 34.8188C155.995 35.0204 155.986 35.2311 155.967 35.451C155.967 35.671 155.958 35.9 155.94 36.1383H145.576C145.65 37.2012 146.016 38.0352 146.676 38.6401C147.354 39.2446 148.169 39.547 149.122 39.547C149.837 39.547 150.433 39.3914 150.909 39.0796C151.404 38.75 151.77 38.3283 152.009 37.815H155.583C155.326 38.6766 154.895 39.4647 154.291 40.1795C153.704 40.8756 152.971 41.4254 152.091 41.8288C151.23 42.2318 150.25 42.4337 149.15 42.4337ZM149.177 30.9976C148.316 30.9976 147.555 31.2451 146.895 31.7398C146.236 32.2164 145.814 32.9494 145.631 33.9391H152.421C152.366 33.041 152.036 32.3263 151.431 31.7948C150.826 31.2634 150.075 30.9976 149.177 30.9976Z" fill="white"/>
<path d="M163.491 42.4337C162.282 42.4337 161.219 42.2411 160.302 41.8564C159.386 41.453 158.653 40.9032 158.103 40.2067C157.553 39.5106 157.224 38.7041 157.113 37.7879H160.66C160.769 38.319 161.063 38.7775 161.539 39.1623C162.034 39.5288 162.667 39.7121 163.436 39.7121C164.206 39.7121 164.765 39.5564 165.113 39.2446C165.479 38.9332 165.663 38.5756 165.663 38.1726C165.663 37.586 165.406 37.1919 164.893 36.9905C164.38 36.7705 163.665 36.5598 162.749 36.3582C162.163 36.2299 161.567 36.0741 160.962 35.8909C160.357 35.7076 159.798 35.4785 159.285 35.2036C158.79 34.9104 158.387 34.5439 158.075 34.104C157.764 33.6458 157.608 33.0869 157.608 32.4271C157.608 31.2175 158.085 30.2004 159.038 29.3757C160.009 28.551 161.365 28.1387 163.106 28.1387C164.719 28.1387 166.002 28.5143 166.955 29.2657C167.926 30.0172 168.504 31.0526 168.687 32.3721H165.361C165.159 31.3642 164.398 30.8602 163.079 30.8602C162.419 30.8602 161.906 30.9885 161.539 31.2451C161.191 31.5016 161.017 31.8223 161.017 32.2072C161.017 32.6104 161.283 32.9311 161.814 33.1694C162.346 33.4076 163.051 33.6275 163.931 33.8291C164.884 34.049 165.754 34.2964 166.542 34.5714C167.349 34.8279 167.99 35.222 168.467 35.7534C168.943 36.2666 169.181 37.0088 169.181 37.98C169.2 38.8233 168.98 39.5835 168.522 40.2618C168.064 40.9397 167.404 41.4712 166.542 41.8564C165.681 42.2411 164.664 42.4337 163.491 42.4337Z" fill="white"/>
<path d="M176.834 42.4337C175.624 42.4337 174.561 42.2411 173.645 41.8564C172.729 41.453 171.995 40.9032 171.446 40.2067C170.896 39.5106 170.566 38.7041 170.456 37.7879H174.002C174.112 38.319 174.405 38.7775 174.882 39.1623C175.377 39.5288 176.009 39.7121 176.779 39.7121C177.548 39.7121 178.107 39.5564 178.456 39.2446C178.822 38.9332 179.005 38.5756 179.005 38.1726C179.005 37.586 178.749 37.1919 178.236 36.9905C177.723 36.7705 177.008 36.5598 176.092 36.3582C175.505 36.2299 174.909 36.0741 174.304 35.8909C173.7 35.7076 173.141 35.4785 172.628 35.2036C172.133 34.9104 171.73 34.5439 171.418 34.104C171.106 33.6458 170.951 33.0869 170.951 32.4271C170.951 31.2175 171.427 30.2004 172.38 29.3757C173.352 28.551 174.708 28.1387 176.449 28.1387C178.062 28.1387 179.344 28.5143 180.298 29.2657C181.269 30.0172 181.846 31.0526 182.029 32.3721H178.703C178.501 31.3642 177.741 30.8602 176.421 30.8602C175.762 30.8602 175.248 30.9885 174.882 31.2451C174.533 31.5016 174.36 31.8223 174.36 32.2072C174.36 32.6104 174.625 32.9311 175.157 33.1694C175.688 33.4076 176.394 33.6275 177.273 33.8291C178.227 34.049 179.097 34.2964 179.885 34.5714C180.692 34.8279 181.333 35.222 181.809 35.7534C182.286 36.2666 182.524 37.0088 182.524 37.98C182.542 38.8233 182.323 39.5835 181.865 40.2618C181.406 40.9397 180.746 41.4712 179.885 41.8564C179.024 42.2411 178.006 42.4337 176.834 42.4337Z" fill="white"/>
</g>
<defs>
<clipPath id="clip0_561_39">
<rect width="150" height="34" fill="white" transform="translate(33 15)"/>
</clipPath>
</defs>
</svg>

<svg width="216" height="64" fill="none" xmlns="http://www.w3.org/2000/svg"><g clip-path="url(#a)" fill="#fff"><path fill-rule="evenodd" clip-rule="evenodd" d="M39.302 24.208a13.678 13.678 0 0 1 11-5.534c4.532 0 8.55 2.201 11.044 5.593-.106.11-.203.222-.29.335-.457.592-.8 1.354-1.076 2.127-.554 1.556-.977 3.589-1.369 5.492l-.035.171c-.39 1.9-.753 3.667-1.193 4.978-.197.59-.384 1.006-.55 1.273-.173-.269-.37-.69-.577-1.288-.47-1.35-.864-3.185-1.283-5.144l-.014-.064c-.402-1.883-.829-3.88-1.361-5.408-.267-.768-.595-1.523-1.024-2.108-.421-.576-1.122-1.225-2.147-1.225-1.019 0-1.723.642-2.15 1.211-.438.582-.779 1.333-1.06 2.102-.565 1.547-1.027 3.57-1.458 5.476l-.044.197c-.426 1.888-.825 3.653-1.277 4.967a7.91 7.91 0 0 1-.483 1.157 7.926 7.926 0 0 1-.47-1.149c-.435-1.286-.815-3.001-1.223-4.844l-.071-.323c-.423-1.907-.882-3.934-1.456-5.486-.285-.771-.633-1.526-1.084-2.11a3.881 3.881 0 0 0-.35-.396Zm-1.511 2.578c.119.235.245.526.375.878.496 1.343.917 3.176 1.35 5.13l.084.38c.395 1.783.805 3.637 1.288 5.069.257.762.568 1.508.967 2.088.378.548 1.055 1.257 2.096 1.257 1.038 0 1.717-.705 2.097-1.251.403-.579.718-1.324.98-2.086.503-1.461.931-3.359 1.341-5.175l.063-.277c.441-1.955.866-3.791 1.359-5.14.228-.624.442-1.06.628-1.33.176.268.378.696.592 1.31.47 1.35.864 3.185 1.283 5.144l.013.064c.403 1.883.83 3.88 1.361 5.408.268.768.596 1.523 1.025 2.108.421.576 1.122 1.225 2.147 1.225 1.03 0 1.728-.655 2.144-1.236.423-.588.74-1.345.997-2.112.494-1.473.886-3.385 1.26-5.203l.054-.264c.402-1.957.789-3.785 1.266-5.124.103-.292.205-.54.302-.749A13.65 13.65 0 0 1 64 32.372c0 7.566-6.133 13.699-13.698 13.699s-13.698-6.133-13.698-13.699c0-1.99.424-3.88 1.187-5.586Zm12.511-10.851c-9.078 0-16.438 7.36-16.438 16.437 0 9.079 7.36 16.438 16.438 16.438 9.079 0 16.438-7.36 16.438-16.438s-7.36-16.437-16.438-16.437Zm.313 10.165-.01.007a.064.064 0 0 1 .01-.007Zm-.378.002-.01-.007.01.007Zm6.394 12.801.01-.007-.01.007Zm.399-.011.01.007-.01-.007Zm-13.36.036s.004-.005.012-.01a.09.09 0 0 1-.012.01Zm.555-.008.012.01s-.004-.002-.012-.01Z"/><path d="M75.816 42.103 71.83 28.468h3.492l2.364 9.814 2.749-9.814h3.903l2.75 9.814 2.391-9.814h3.491l-4.013 13.635H85.3l-2.915-10.198-2.913 10.198h-3.657ZM98.093 42.434c-1.172 0-2.135-.184-2.886-.55-.751-.385-1.31-.89-1.677-1.512a3.992 3.992 0 0 1-.55-2.062c0-1.265.495-2.29 1.485-3.079.99-.788 2.474-1.182 4.453-1.182h3.464v-.33c0-.934-.266-1.622-.797-2.062-.532-.44-1.192-.66-1.98-.66-.714 0-1.337.175-1.869.523-.531.33-.861.825-.99 1.484H93.31c.092-.99.422-1.85.99-2.584.586-.733 1.338-1.292 2.254-1.677.917-.403 1.943-.604 3.079-.604 1.943 0 3.473.485 4.591 1.457 1.118.97 1.677 2.346 1.677 4.123v8.385h-2.997l-.329-2.2a5.054 5.054 0 0 1-1.705 1.815c-.715.476-1.64.715-2.777.715Zm.798-2.75c1.008 0 1.787-.33 2.336-.99.568-.659.926-1.475 1.073-2.446h-2.997c-.935 0-1.603.174-2.007.523-.403.33-.605.742-.605 1.237 0 .531.202.944.605 1.237.404.293.935.44 1.595.44ZM111.44 42.103l-5.002-13.635h3.683l3.464 10.31 3.464-10.31h3.683l-5.03 13.635h-4.262ZM127.806 42.434c-1.374 0-2.593-.294-3.656-.88a6.37 6.37 0 0 1-2.502-2.474c-.605-1.063-.907-2.291-.907-3.684 0-1.411.293-2.666.88-3.766.605-1.1 1.429-1.952 2.474-2.557 1.063-.623 2.309-.934 3.738-.934 1.338 0 2.521.293 3.547.88a6.193 6.193 0 0 1 2.391 2.419c.587 1.007.88 2.134.88 3.38 0 .202-.009.413-.027.633 0 .22-.01.449-.028.687h-10.364c.074 1.063.44 1.897 1.1 2.502.678.605 1.494.907 2.447.907.714 0 1.31-.156 1.787-.467a3.04 3.04 0 0 0 1.099-1.265h3.574a6.525 6.525 0 0 1-1.292 2.364 6.223 6.223 0 0 1-2.2 1.65c-.861.403-1.842.605-2.941.605Zm.027-11.436c-.861 0-1.621.247-2.281.742-.66.476-1.082 1.21-1.265 2.2h6.79c-.055-.899-.384-1.614-.989-2.145-.605-.532-1.356-.797-2.255-.797ZM136.511 42.104V22.311h3.518v19.793h-3.518ZM149.15 42.434c-1.375 0-2.594-.294-3.657-.88a6.374 6.374 0 0 1-2.501-2.474c-.605-1.063-.907-2.291-.907-3.684 0-1.411.293-2.666.879-3.766.605-1.1 1.43-1.952 2.475-2.557 1.063-.623 2.309-.934 3.738-.934 1.338 0 2.52.293 3.547.88a6.193 6.193 0 0 1 2.391 2.419c.586 1.007.88 2.134.88 3.38 0 .202-.009.413-.028.633 0 .22-.009.449-.027.687h-10.364c.074 1.063.44 1.897 1.1 2.502.678.605 1.493.907 2.446.907.715 0 1.311-.156 1.787-.467.495-.33.861-.752 1.1-1.265h3.574a6.525 6.525 0 0 1-1.292 2.364 6.223 6.223 0 0 1-2.2 1.65c-.861.403-1.841.605-2.941.605Zm.027-11.436c-.861 0-1.622.247-2.282.742-.659.476-1.081 1.21-1.264 2.2h6.79c-.055-.899-.385-1.614-.99-2.145-.605-.532-1.356-.797-2.254-.797ZM163.491 42.434c-1.209 0-2.272-.193-3.189-.578-.916-.403-1.649-.953-2.199-1.65a4.741 4.741 0 0 1-.99-2.418h3.547c.109.531.403.99.879 1.374.495.367 1.128.55 1.897.55.77 0 1.329-.156 1.677-.467.366-.312.55-.67.55-1.072 0-.587-.257-.981-.77-1.183-.513-.22-1.228-.43-2.144-.632a23.547 23.547 0 0 1-1.787-.467 9.17 9.17 0 0 1-1.677-.687 3.89 3.89 0 0 1-1.21-1.1c-.311-.458-.467-1.017-.467-1.677 0-1.21.477-2.227 1.43-3.051.971-.825 2.327-1.237 4.068-1.237 1.613 0 2.896.375 3.849 1.127.971.751 1.549 1.787 1.732 3.106h-3.326c-.202-1.008-.963-1.512-2.282-1.512-.66 0-1.173.128-1.54.385-.348.257-.522.577-.522.962 0 .403.266.724.797.962.532.239 1.237.459 2.117.66.953.22 1.823.467 2.611.742.807.257 1.448.651 1.925 1.182.476.514.714 1.256.714 2.227a3.825 3.825 0 0 1-.659 2.282c-.458.678-1.118 1.21-1.98 1.594-.861.385-1.878.578-3.051.578ZM176.834 42.434c-1.21 0-2.273-.193-3.189-.578-.916-.403-1.65-.953-2.199-1.65a4.733 4.733 0 0 1-.99-2.418h3.546c.11.531.403.99.88 1.374.495.367 1.127.55 1.897.55.769 0 1.328-.156 1.677-.467.366-.312.549-.67.549-1.072 0-.587-.256-.981-.769-1.183-.513-.22-1.228-.43-2.144-.632a23.447 23.447 0 0 1-1.788-.467 9.189 9.189 0 0 1-1.676-.687 3.89 3.89 0 0 1-1.21-1.1c-.312-.458-.467-1.017-.467-1.677 0-1.21.476-2.227 1.429-3.051.972-.825 2.328-1.237 4.069-1.237 1.613 0 2.895.375 3.849 1.127.971.751 1.548 1.787 1.731 3.106h-3.326c-.202-1.008-.962-1.512-2.282-1.512-.659 0-1.173.128-1.539.385-.349.257-.522.577-.522.962 0 .403.265.724.797.962.531.239 1.237.459 2.116.66.954.22 1.824.467 2.612.742.807.257 1.448.651 1.924 1.182.477.514.715 1.256.715 2.227a3.832 3.832 0 0 1-.659 2.282c-.459.678-1.119 1.21-1.98 1.594-.861.385-1.879.578-3.051.578Z"/></g><defs><clipPath id="a"><path fill="#fff" transform="translate(33 15)" d="M0 0h150v34H0z"/></clipPath></defs></svg>
